src/static/logos/postman.svg

<?xml version="1.0" encoding="UTF-8"?>
<svg width="256px" height="264px" viewBox="0 0 256 264" version="1.1" xmlns="http://www.w3.org/2000/svg" xmlns:xlink="http://www.w3.org/1999/xlink" preserveAspectRatio="xMidYMid">
    <g fill="none">
		<polygon fill="#F15A24" fill-rule="nonzero" points="45.9853445 256.455035 0 258.050295 23.5727668 234.082843 45.9871803 256.45687"></polygon>
		<path d="M254.580742,137.579706 C246.037197,204.193287 185.105239,251.256212 118.502672,242.703489 C51.8890918,234.158109 4.8261665,173.227986 13.3697111,106.619913 C21.918763,40.0081676 82.8378711,-7.06026487 149.456959,1.49429423 C216.066868,10.0360031 263.140808,70.9716329 254.580742,137.577871" fill="#F15A24" fill-rule="nonzero"></path>
		<path d="M164.981832,87.5318642 C172.972818,96.0258438 165.086469,116.108865 165.086469,116.108865 C165.086469,116.108865 157.291907,144.502291 112.665012,181.321774 L104.334413,173.145378 L160.985421,115.246066 L162.079523,113.768293 C163.586668,111.31207 164.834972,87.3666474 164.981832,87.5318642" fill="#999999" fill-rule="nonzero"></path>
		<path d="M164.981832,87.5318642 C172.972818,96.0258438 165.086469,116.108865 165.086469,116.108865 C165.086469,116.108865 157.291907,144.502291 112.665012,181.321774 L104.334413,173.145378 L160.985421,115.246066 L162.079523,113.768293 C163.586668,111.31207 164.834972,87.3666474 164.981832,87.5318642 L164.981832,87.5318642 Z" stroke="#FFFFFF" stroke-width="1.918" stroke-linecap="round" stroke-linejoin="round"></path>
		<path d="M92.099191,161.108415 L164.862508,87.3225896 C168.556022,91.7081779 169.34172,96.4333786 168.269646,103.165046 C167.548199,107.827831 159.494798,117.146059 159.494798,117.146059 L104.334413,173.145378" fill="#666666" fill-rule="nonzero"></path>
		<path d="M92.099191,161.108415 L164.862508,87.3225896 C168.556022,91.7081779 169.34172,96.4333786 168.269646,103.165046 C167.548199,107.827831 159.494798,117.146059 159.494798,117.146059 L104.334413,173.145378" stroke="#FFFFFF" stroke-width="1.201" stroke-linecap="round" stroke-linejoin="round"></path>
		<path d="M164.981832,87.583265 L92.099191,161.110251 L92.2460504,160.967063 L92.2185143,160.978078 L74.1364527,143.160363 C111.844435,96.2553116 136.224929,87.5098353 136.224929,87.5098353 C136.224929,87.5098353 152.096757,81.314205 163.419615,86.1220141 C164.289757,86.5882927 164.66792,86.856311 164.979996,87.5851007" fill="#FF931E" fill-rule="nonzero"></path>
		<path d="M164.981832,87.583265 L92.099191,161.110251 L92.2460504,160.967063 L92.2185143,160.978078 L74.1364527,143.160363 C111.844435,96.2553116 136.224929,87.5098353 136.224929,87.5098353 C136.224929,87.5098353 152.096757,81.314205 163.419615,86.1220141 C164.289757,86.5882927 164.66792,86.856311 164.979996,87.5851007 L164.981832,87.583265 Z" stroke="#FFFFFF" stroke-width="1.918" stroke-linecap="round" stroke-linejoin="round"></path>
		<path d="M112.665012,181.319938 C95.276861,195.640564 73.0239928,218.13575 42.776467,233.825839 L49.5044625,262.58825 L20.9880417,234.501392 L92.0973553,161.108415" fill="#999999" fill-rule="nonzero"></path>
		<path d="M112.665012,181.319938 C95.276861,195.640564 73.0239928,218.13575 42.776467,233.825839 L49.5044625,262.58825 L20.9880417,234.501392 L92.0973553,161.108415" stroke="#FFFFFF" stroke-width="1.918" stroke-linecap="round" stroke-linejoin="round"></path>
		<polygon fill="#F15A24" fill-rule="nonzero" points="74.6229244 143.400845 92.2882725 160.996435 51.4778855 169.835534 74.2319113 143.083262 74.6247601 143.400845"></polygon>
		<polygon stroke="#FFFFFF" stroke-width="1.918" stroke-linecap="round" stroke-linejoin="round" points="74.6229244 143.400845 92.2882725 160.996435 51.4778855 169.835534 74.2319113 143.083262 74.6247601 143.400845"></polygon>
		<path d="M158.024368,66.2464323 C156.291428,81.8869566 167.551871,95.9671001 183.192395,97.7110552 C198.820069,99.4476675 212.913063,88.1780455 214.657018,72.5430283 C216.395466,56.9080112 205.116666,42.8131818 189.483484,41.0747339 C173.841124,39.3473004 159.759145,50.6022364 158.024368,66.2464323" fill="#999999" fill-rule="nonzero"></path>
		<path d="M158.024368,66.2464323 C156.291428,81.8869566 167.551871,95.9671001 183.192395,97.7110552 C198.820069,99.4476675 212.913063,88.1780455 214.657018,72.5430283 C216.395466,56.9080112 205.116666,42.8131818 189.483484,41.0747339 C173.841124,39.3473004 159.759145,50.6022364 158.024368,66.2464323 L158.024368,66.2464323 Z" stroke="#FFFFFF" stroke-width="1.918" stroke-linecap="round" stroke-linejoin="round"></path>
		<path d="M210.565149,85.1380562 C215.820879,77.4591462 215.549189,65.9710709 214.493637,62.5676047 C213.199439,58.4004697 210.302638,51.6229091 205.250675,48.1001197 L178.536953,72.7064094 C178.536953,72.7064094 199.067895,94.7646889 199.602096,94.8381185 C199.824221,94.8638189 205.772026,92.1395774 210.565149,85.1380562" fill="#666666" fill-rule="nonzero"></path>
		<path d="M210.565149,85.1380562 C215.820879,77.4591462 215.549189,65.9710709 214.493637,62.5676047 C213.199439,58.4004697 210.302638,51.6229091 205.250675,48.1001197 L178.536953,72.7064094 C178.536953,72.7064094 199.067895,94.7646889 199.602096,94.8381185 C199.824221,94.8638189 205.772026,92.1395774 210.565149,85.1380562 L210.565149,85.1380562 Z M205.175409,65.8627621 C205.175409,65.8627621 207.743613,72.1703727 204.48517,77.0773118 L205.175409,65.8627621 Z" stroke="#FFFFFF" stroke-width="1.918" stroke-linecap="round" stroke-linejoin="round"></path>
		<polyline fill="#666666" fill-rule="nonzero" points="104.964073 173.156392 75.4820518 178.402944 93.2777376 159.913347"></polyline>
		<path d="M104.964073,173.156392 L75.4820518,178.402944 L93.2777376,159.913347 M75.3076562,143.529347 L112.788007,178.803135" stroke="#FFFFFF" stroke-width="1.918" stroke-linecap="round" stroke-linejoin="round"></path>
    </g>
</svg>

<svg width="256" height="264" xmlns="http://www.w3.org/2000/svg" preserveAspectRatio="xMidYMid"><g fill="none"><path fill="#F15A24" d="M45.985 256.455L0 258.05l23.573-23.967 22.414 22.374zM254.58 137.58c-8.543 66.613-69.475 113.676-136.077 105.123C51.889 234.158 4.826 173.228 13.37 106.62 21.919 40.008 82.838-7.06 149.457 1.494c66.61 8.542 113.684 69.478 105.124 136.084"/><path d="M164.982 87.532c7.99 8.494.104 28.577.104 28.577s-7.794 28.393-52.421 65.213l-8.33-8.177 56.65-57.899 1.095-1.478c1.507-2.456 2.755-26.401 2.902-26.236" fill="#999"/><path d="M164.982 87.532c7.99 8.494.104 28.577.104 28.577s-7.794 28.393-52.421 65.213l-8.33-8.177 56.65-57.899 1.095-1.478c1.507-2.456 2.755-26.401 2.902-26.236h0z" stroke="#FFF" stroke-width="1.918" stroke-linecap="round" stroke-linejoin="round"/><path d="M92.1 161.108l72.763-73.785c3.693 4.385 4.479 9.11 3.407 15.842-.722 4.663-8.775 13.981-8.775 13.981l-55.16 56" fill="#666"/><path d="M92.1 161.108l72.763-73.785c3.693 4.385 4.479 9.11 3.407 15.842-.722 4.663-8.775 13.981-8.775 13.981l-55.16 56" stroke="#FFF" stroke-width="1.201" stroke-linecap="round" stroke-linejoin="round"/><path d="M164.982 87.583L92.099 161.11l.147-.143-.027.011-18.083-17.818c37.708-46.905 62.089-55.65 62.089-55.65s15.872-6.196 27.195-1.388c.87.466 1.248.734 1.56 1.463" fill="#FF931E"/><path d="M164.982 87.583L92.099 161.11l.147-.143-.027.011-18.083-17.818c37.708-46.905 62.089-55.65 62.089-55.65s15.872-6.196 27.195-1.388c.87.466 1.248.734 1.56 1.463l.002-.002z" stroke="#FFF" stroke-width="1.918" stroke-linecap="round" stroke-linejoin="round"/><path d="M112.665 181.32c-17.388 14.32-39.641 36.816-69.889 52.506l6.728 28.762-28.516-28.087 71.11-73.393" fill="#999"/><path d="M112.665 181.32c-17.388 14.32-39.641 36.816-69.889 52.506l6.728 28.762-28.516-28.087 71.11-73.393" stroke="#FFF" stroke-width="1.918" stroke-linecap="round" stroke-linejoin="round"/><path fill="#F15A24" d="M74.623 143.4l17.665 17.596-40.81 8.84 22.754-26.753.393.318z"/><path stroke="#FFF" stroke-width="1.918" stroke-linecap="round" stroke-linejoin="round" d="M74.623 143.4l17.665 17.596-40.81 8.84 22.754-26.753.393.318z"/><path d="M158.024 66.246c-1.733 15.641 9.528 29.721 25.168 31.465 15.628 1.737 29.721-9.533 31.465-25.168 1.738-15.635-9.54-29.73-25.174-31.468-15.642-1.728-29.724 9.527-31.459 25.171" fill="#999"/><path d="M158.024 66.246c-1.733 15.641 9.528 29.721 25.168 31.465 15.628 1.737 29.721-9.533 31.465-25.168 1.738-15.635-9.54-29.73-25.174-31.468-15.642-1.728-29.724 9.527-31.459 25.171h0z" stroke="#FFF" stroke-width="1.918" stroke-linecap="round" stroke-linejoin="round"/><path d="M210.565 85.138c5.256-7.679 4.984-19.167 3.929-22.57-1.295-4.168-4.191-10.945-9.243-14.468l-26.714 24.606s20.53 22.059 21.065 22.132c.222.026 6.17-2.698 10.963-9.7" fill="#666"/><path d="M210.565 85.138c5.256-7.679 4.984-19.167 3.929-22.57-1.295-4.168-4.191-10.945-9.243-14.468l-26.714 24.606s20.53 22.059 21.065 22.132c.222.026 6.17-2.698 10.963-9.7h0zm-5.39-19.275s2.569 6.307-.69 11.214l.69-11.214z" stroke="#FFF" stroke-width="1.918" stroke-linecap="round" stroke-linejoin="round"/><path fill="#666" d="M104.964 173.156l-29.482 5.247 17.796-18.49"/><path d="M104.964 173.156l-29.482 5.247 17.796-18.49m-17.97-16.384l37.48 35.274" stroke="#FFF" stroke-width="1.918" stroke-linecap="round" stroke-linejoin="round"/></g></svg>
